awscloudtier/static/img/logo.svg

<?xml version="1.0" encoding="UTF-8"?>
<svg version="1.1" viewBox="0 0 50 50" xml:space="preserve" xmlns="http://www.w3.org/2000/svg">
<desc>Created with Fabric.js 3.5.0</desc>

<rect width="100%" height="100%" fill="#fff"/>
<g transform="matrix(.3089 0 0 .3165 24.396 24.996)" clip-path="url(#a)">
<clipPath id="a">
	<rect transform="translate(1e-4)" x="-79" y="-79" width="158" height="158" rx="0" ry="0"/>
</clipPath>
<path transform="translate(-79 -79)" d="m106.12-7.6585e-5h-54.249-0.1357c-28.613 0.037508-51.777 23.263-51.74 51.875v54.249 0.136c0.037508 28.613 23.263 51.777 51.876 51.74h54.249 0.136c28.613-0.038 51.777-23.263 51.74-51.876v-54.249-0.1357c-0.038-28.613-23.263-51.777-51.876-51.74z" fill="#6c757d" stroke-linecap="round" vector-effect="non-scaling-stroke" style="font-file-url:none;is-custom-font:none"/>
</g>
<g transform="matrix(-1.6307 0 0 1.6307 21.934 25.735)">
<g vector-effect="non-scaling-stroke" style="">
		<g transform="translate(-.5)">
<path transform="translate(-7.5 -8.0001)" d="m14.763 0.075a0.5 0.5 0 0 1 0.237 0.425v15a0.5 0.5 0 0 1-0.5 0.5h-3a0.5 0.5 0 0 1-0.5-0.5v-1.5h-1v1.5a0.5 0.5 0 0 1-0.5 0.5h-9a0.5 0.5 0 0 1-0.5-0.5v-5.5a0.5 0.5 0 0 1 0.342-0.474l5.658-1.886v-3.14a0.5 0.5 0 0 1 0.276-0.447l8-4a0.5 0.5 0 0 1 0.487 0.022zm-8.763 8.619-5 1.666v4.64h5v-6.306zm1 6.306h2v-1.5a0.5 0.5 0 0 1 0.5-0.5h2a0.5 0.5 0 0 1 0.5 0.5v1.5h2v-13.691l-7 3.5v10.191z" fill="#fff" fill-rule="evenodd" stroke-linecap="round" style="font-file-url:none;is-custom-font:none"/>
</g>
		<g transform="translate(-.5 .5)">
<path transform="translate(-7.5 -8.5)" d="m2 11h1v1h-1v-1zm2 0h1v1h-1v-1zm-2 2h1v1h-1v-1zm2 0h1v1h-1v-1zm4-4h1v1h-1v-1zm2 0h1v1h-1v-1zm-2 2h1v1h-1v-1zm2 0h1v1h-1v-1zm2-2h1v1h-1v-1zm0 2h1v1h-1v-1zm-4-4h1v1h-1v-1zm2 0h1v1h-1v-1zm2 0h1v1h-1v-1zm-4-2h1v1h-1v-1zm2 0h1v1h-1v-1zm2 0h1v1h-1v-1zm0-2h1v1h-1v-1z" fill="#fff" stroke-linecap="round" style="font-file-url:none;is-custom-font:none"/>
</g>
</g>
</g>
<g transform="matrix(.5074 .3917 -.3917 .5074 32.321 18.009)">
<g vector-effect="non-scaling-stroke" style="">
		<g id="Icons" transform="translate(0 8)">
<circle r="2" fill="#fff" style="font-file-url:none;is-custom-font:none"/>
</g>
		<g id="b" transform="translate(-.0095 .8028)">
<path transform="translate(-11.99 -12.803)" d="m17.1 15.59a1.984 1.984 0 0 1-1.133-0.354 7.088 7.088 0 0 0-7.93 0 2 2 0 1 1-2.27-3.293 10.975 10.975 0 0 1 12.47 0 2 2 0 0 1-1.137 3.647z" fill="#fff" stroke-linecap="round" style="font-file-url:none;is-custom-font:none"/>
</g>
		<g transform="translate(0 -6.7072)">
<path transform="translate(-12 -5.2927)" d="m21 8.581a1.992 1.992 0 0 1-1.058-0.3 14.988 14.988 0 0 0-15.88 0 2 2 0 0 1-2.122-3.397 18.988 18.988 0 0 1 20.12 0 2 2 0 0 1-1.06 3.697z" fill="#fff" stroke-linecap="round" style="font-file-url:none;is-custom-font:none"/>
</g>
</g>
</g>
</svg>

<svg xmlns="http://www.w3.org/2000/svg" xmlns:xlink="http://www.w3.org/1999/xlink" version="1.1" width="50" height="50" viewBox="0 0 50 50" xml:space="preserve">
<desc>Created with Fabric.js 3.5.0</desc>
<defs>
</defs>
<rect x="0" y="0" width="100%" height="100%" fill="#ffffff"/>
<g transform="matrix(0.3089 0 0 0.3165 24.396 24.9964)" id="971748" clip-path="url(#CLIPPATH_5)">
<clipPath id="CLIPPATH_5">
	<rect transform="matrix(1 0 0 1 0.0001 0)" id="clip0_302_96" x="-79" y="-79" rx="0" ry="0" width="158" height="158"/>
</clipPath>
<path style="stroke: none; stroke-width: 0; stroke-dasharray: none; stroke-linecap: butt; stroke-dashoffset: 0; stroke-linejoin: miter; stroke-miterlimit: 4; is-custom-font: none; font-file-url: none; fill: rgb(108,117,125); fill-rule: nonzero; opacity: 1;" vector-effect="non-scaling-stroke" transform=" translate(-78.9999, -79)" d="M 106.124 -0.0000765851 H 51.8754 C 51.8303 -0.0000765851 51.7848 -0.0000765851 51.7397 -0.0000765851 C 23.1271 0.0374314 -0.0376151 23.2628 -0.000107103 51.8754 V 106.124 C -0.000107103 106.17 -0.000107103 106.215 -0.000107103 106.26 C 0.0374009 134.873 23.2628 158.037 51.8754 158 H 106.124 C 106.17 158 106.215 158 106.26 158 C 134.873 157.962 158.037 134.737 158 106.124 V 51.8754 C 158 51.8303 158 51.7848 158 51.7397 C 157.962 23.1271 134.737 -0.0375846 106.124 -0.0000765851 Z" stroke-linecap="round"/>
</g>
<g transform="matrix(-1.6307 0 0 1.6307 21.9343 25.7349)" id="649514">
<g style="" vector-effect="non-scaling-stroke">
		<g transform="matrix(1 0 0 1 -0.5 0)">
<path style="stroke: none; stroke-width: 1; stroke-dasharray: none; stroke-linecap: butt; stroke-dashoffset: 0; stroke-linejoin: miter; stroke-miterlimit: 4; is-custom-font: none; font-file-url: none; fill: rgb(255,255,255); fill-rule: evenodd; opacity: 1;" transform=" translate(-7.5, -8.0001)" d="M 14.763 0.075 A 0.5 0.5 0 0 1 15 0.5 v 15 a 0.5 0.5 0 0 1 -0.5 0.5 h -3 a 0.5 0.5 0 0 1 -0.5 -0.5 V 14 h -1 v 1.5 a 0.5 0.5 0 0 1 -0.5 0.5 h -9 a 0.5 0.5 0 0 1 -0.5 -0.5 V 10 a 0.5 0.5 0 0 1 0.342 -0.474 L 6 7.64 V 4.5 a 0.5 0.5 0 0 1 0.276 -0.447 l 8 -4 a 0.5 0.5 0 0 1 0.487 0.022 z M 6 8.694 L 1 10.36 V 15 h 5 V 8.694 z M 7 15 h 2 v -1.5 a 0.5 0.5 0 0 1 0.5 -0.5 h 2 a 0.5 0.5 0 0 1 0.5 0.5 V 15 h 2 V 1.309 l -7 3.5 V 15 z" stroke-linecap="round"/>
</g>
		<g transform="matrix(1 0 0 1 -0.5 0.5)">
<path style="stroke: none; stroke-width: 1; stroke-dasharray: none; stroke-linecap: butt; stroke-dashoffset: 0; stroke-linejoin: miter; stroke-miterlimit: 4; is-custom-font: none; font-file-url: none; fill: rgb(255,255,255); fill-rule: nonzero; opacity: 1;" transform=" translate(-7.5, -8.5)" d="M 2 11 h 1 v 1 H 2 v -1 z m 2 0 h 1 v 1 H 4 v -1 z m -2 2 h 1 v 1 H 2 v -1 z m 2 0 h 1 v 1 H 4 v -1 z m 4 -4 h 1 v 1 H 8 V 9 z m 2 0 h 1 v 1 h -1 V 9 z m -2 2 h 1 v 1 H 8 v -1 z m 2 0 h 1 v 1 h -1 v -1 z m 2 -2 h 1 v 1 h -1 V 9 z m 0 2 h 1 v 1 h -1 v -1 z M 8 7 h 1 v 1 H 8 V 7 z m 2 0 h 1 v 1 h -1 V 7 z m 2 0 h 1 v 1 h -1 V 7 z M 8 5 h 1 v 1 H 8 V 5 z m 2 0 h 1 v 1 h -1 V 5 z m 2 0 h 1 v 1 h -1 V 5 z m 0 -2 h 1 v 1 h -1 V 3 z" stroke-linecap="round"/>
</g>
</g>
</g>
<g transform="matrix(0.5074 0.3917 -0.3917 0.5074 32.3212 18.0088)" id="864295">
<g style="" vector-effect="non-scaling-stroke">
		<g transform="matrix(1 0 0 1 0 8)" id="Icons">
<circle style="stroke: none; stroke-width: 1; stroke-dasharray: none; stroke-linecap: butt; stroke-dashoffset: 0; stroke-linejoin: miter; stroke-miterlimit: 4; is-custom-font: none; font-file-url: none; fill: rgb(255,255,255); fill-rule: nonzero; opacity: 1;" cx="0" cy="0" r="2"/>
</g>
		<g transform="matrix(1 0 0 1 -0.0095 0.8028)" id="Icons">
<path style="stroke: none; stroke-width: 1; stroke-dasharray: none; stroke-linecap: butt; stroke-dashoffset: 0; stroke-linejoin: miter; stroke-miterlimit: 4; is-custom-font: none; font-file-url: none; fill: rgb(255,255,255); fill-rule: nonzero; opacity: 1;" transform=" translate(-11.9905, -12.8028)" d="M 17.1 15.59 a 1.984 1.984 0 0 1 -1.133 -0.354 a 7.088 7.088 0 0 0 -7.93 0 a 2 2 0 1 1 -2.27 -3.293 a 10.975 10.975 0 0 1 12.47 0 A 2 2 0 0 1 17.1 15.59 Z" stroke-linecap="round"/>
</g>
		<g transform="matrix(1 0 0 1 0 -6.7072)" id="Icons">
<path style="stroke: none; stroke-width: 1; stroke-dasharray: none; stroke-linecap: butt; stroke-dashoffset: 0; stroke-linejoin: miter; stroke-miterlimit: 4; is-custom-font: none; font-file-url: none; fill: rgb(255,255,255); fill-rule: nonzero; opacity: 1;" transform=" translate(-11.9999, -5.2927)" d="M 21 8.581 a 1.992 1.992 0 0 1 -1.058 -0.3 a 14.988 14.988 0 0 0 -15.88 0 A 2 2 0 0 1 1.94 4.884 a 18.988 18.988 0 0 1 20.12 0 A 2 2 0 0 1 21 8.581 Z" stroke-linecap="round"/>
</g>
</g>
</g>
</svg>
